X: 35
T: Acemtarab Peşrev
C: Kantemiroğlu
O: Turkey
F: http://compmusic.upf.edu/node/140
N: acemtarab--pesrev--havi----kantemiroglu
N: makam= acemtarab
N: form= pesrev
N: usul= havi = 64/4
M: 64/4
L: 1/16
K: C    
Q: 1/4=78
%%MIDI tuningsystem comma53
f6 e2 f2 e2 f2 g2  | a2 g2 f2 e2 d2 e2 d2 c2  | \
w:  1. HANE  |   | 
d2 e2 f2 g2 e4 {g}f4  | z4 e2 f2 e4 f2 g2  | 
w:   |   | 
a2 _7/8b2 a2 g2 f3 e d4  | e2 f2 g a g f e6 f2  | \
w:   |   | 
e2 d2 c4 d2 e2 f g f e  | 
w:   | 
e6 f2 e2 d2 c2 B2  | A2 B2 c2 d2 e2 d2 e4  | \
w:   |   | 
z4 e2 d2 e4 g2 f2  | f2 e4 d2 e f e2 d2 e2  | 
w:   |   | 
d4 e2 f2 e2 d2 c4  | d2 e2 f2 g2 e2 f2 d2 e2  | \
w:   |   | 
c2 d e d2 c2 _2/4B4 A4  | 
w:   | 
B3 A B2 c2 B2 A2 B4  | z4 B2 c2 d4 e2 f2  | \
w:   |   | 
e2 d2 c2 e2 d6 a2  | a2 g2 {a}g2 f2 f2 e2 f2 g2  | 
w:   |   | 
f3 e d2 _7/8b2 a2 g2 f2 e2  | d2 c2 d2 e2 f6 e2  | \
w:   |   | 
d4 c4 _2/4B4 A4  | G4 F4 G4 A4  | 
w:   |   | 
z4 A2 A2 A2 _B2 A2 G2  | _B A G2 A2 B2 c6 B2  | \
w:   |   | 
c2 B2 c2 d2 c2 d2 c2 B2  | 
w:   | 
c2 e2 d4 z2 c e d2 c2  | B4 A4 z2 A _B A2 G2  | \
w:   |   | 
F2 E2 D2 A2 G6 F2  | 
w:   | 
F6 E2 A2 G2 F2 E2  | D4 A4 G2 F4 E2  | \
w:   |   | 
D2 E2 F2 G2 F4 E4  | D4 E8 z4  | f8 f2 d4 f e  | 
w:   |   |  2. HANE  | 
d6 f2 e2 d2 c2 B2  | c4 B2 c2 d4 c2 d2  | \
w:   |   | 
e4 d2 e2 f4 e2 f2  | g2 a2 g2 f2 e4 d4  | 
w:   |   | 
e d c2 d2 e2 f4 z4  | e2 f2 e2 f2 g2 a4 g2  | \
w:   |   | 
f3 e d4 z2 f g f2 e2  | 
w:   | 
e2 d e d2 c2 d6 A2  | _7/8B2 A2 B2 ^9/8c2 d4 z4  | \
w:   |   | 
c6 d2 c2 _B2 A2 B2  | c4 z4 d c _B2 c2 d2  | 
w:   |   | 
c _B A2 B2 c2 B2 c2 A4  | z2 A _B A2 G2 F2 G2 A2 B2  | \
w:   |   | 
G4 A4 z4 F2 G2  | 
w:   | 
F4 _B4 B2 A4 G2  | A2 G2 F4 G2 A _B A2 G2  | \
w:   |   | 
F3 E D2 E2 F6 G2  | A4 _B4 A2 B2 A2 B2  | 
w:   |   | 
c4 d4 _B2 c2 B2 c2  | d6 _7/8e2 d2 c2 B2 A2  | \
w:   |   | 
G4 F4 G4 A4  | z4 A2 A2 A2 _B2 A2 G2  | 
w:   |   | 
_B A G2 A2 B2 c6 B2  | c2 B2 c2 d2 c2 d2 c2 B2  | \
w:   |   | 
c2 e2 d4 z2 c e d2 c2  | 
w:   | 
B4 A4 z2 A _B A2 G2  | F2 E2 D2 A2 G6 F2  | \
w:   |   | 
F6 E2 A2 G2 F2 E2  | D4 A4 G2 F4 E2  | 
w:   |   | 
D2 E2 F2 G2 F4 E4  | D4 E8 z4  | a2 _7/8b2 a2 g2 f2 e2 f2 g2  | \
w:   |   |  3. HANE  | 
a6 _7/8b2 a3 g f4  | 
w:   | 
z4 f2 g2 a4 g2 f2  | e6 a2 g2 f2 e2 d2  | \
w:   |   | 
f2 e2 d2 ^9/8c2 d6 c2  | _7/8B2 ^9/8c2 d2 e2 c4 d4  | 
w:   |   | 
z4 ^9/8c2 d2 c4 d4  | e4 d2 e2 f4 e2 f2  | \
w:   |   | 
g2 a2 g2 f2 g4 a4  | z4 g2 a2 g4 c'2 b2  | 
w:   |   | 
c'2 d'4 c' b a6 g2  | f2 g2 a2 _7/8b2 g4 a4  | \
w:   |   | 
z4 g2 a2 g4 _7/8b4  | _7/8b2 a4 g2 f3 e d2 e2  | 
w:   |   | 
f6 e2 f g f2 e2 f2  | z4 e2 f2 e4 d4  | \
w:   |   | 
^9/8c2 d2 e f e d d6 c2  | _7/8B3 A G4 z2 A _3/4B A2 G2  | 
w:   |   | 
_7/8B2 A2 G2 F2 G6 A2  | _7/8B6 ^9/8c2 d6 e2  | \
w:   |   | 
d4 c4 _B4 A4  | G4 F4 G4 A4  | z4 A2 A2 A2 _B2 A2 G2  | 
w:   |   |   | 
_B A G2 A2 B2 c6 B2  | c2 B2 c2 d2 c2 d2 c2 B2  | \
w:   |   | 
c2 e2 d4 z2 c e d2 c2  | 
w:   | 
B4 A4 z2 A _B A2 G2  | F2 E2 D2 A2 G6 F2  | \
w:   |   | 
F6 E2 A2 G2 F2 E2  | D4 A4 G2 F4 E2  | 
w:   |   | 
D2 E2 F2 G2 F4 E4  | D4 E8 z4  | G6 F2 E4 D4  | \
w:   |   |  4. HANE  | 
E2 D2 E2 F2 G4 A4  | B4 A2 B2 c4 B2 c2  | 
w:   |   | 
d6 B2 c2 d2 c2 B2  | A2 B2 G2 A2 G4 A4  | \
w:   |   | 
B6 c2 B2 A2 G4  | A2 B2 A2 G2 B2 A2 G2 F2  | 
w:   |   | 
G6 e2 d2 c2 d4  | z4 B2 c2 B4 c4  | d6 e2 d2 e2 d2 c2  | \
w:   |   |   | 
f6 e2 e2 d2 d2 c2  | 
w:   | 
e6 d2 d2 c2 {d}c2 B2  | e2 d2 c2 B2 A2 B2 G4  | \
w:   |   | 
A B A2 G2 A2 B c B2 A2 B2  | 
w:   | 
c2 d2 c2 B2 f3 e d4  | z2 d e f2 g2 f3 e d2 _7/8b2  | \
w:   |   | 
a2 g2 f2 e2 d4 e2 f2  | 
w:   | 
e4 f2 g2 a2 g2 f2 e2  | d2 e2 f2 g2 f6 e2  | \
w:   |   | 
d4 c4 _B4 A4  | G4 F4 G2 A2 G2 F2  | 
w:   |   | 
G2 F2 G2 A2 G4 A4  | z4 A2 A2 A2 _B2 A2 G2  | \
w:   |   | 
_B A G2 A2 B2 c6 B2  | c2 B2 c2 d2 c2 d2 c2 B2  | 
w:   |   | 
c2 e2 d4 z2 c e d2 c2  | B4 A4 z2 A _B A2 G2  | \
w:   |   | 
F2 E2 D2 A2 G6 F2  | 
w:   | 
F6 E2 A2 G2 F2 E2  | D4 A4 G2 F4 E2  | \
w:   |   | 
D2 E2 F2 G2 F4 E4  | D4 E8 z4  | |


